styles/4/Numix/48/places/pink-folder-pictures.svg

<?xml version="1.0" encoding="UTF-8" standalone="no"?>
<!-- Created with Inkscape (http://www.inkscape.org/) -->

<svg
   xmlns:dc="http://purl.org/dc/elements/1.1/"
   xmlns:cc="http://creativecommons.org/ns#"
   xmlns:rdf="http://www.w3.org/1999/02/22-rdf-syntax-ns#"
   xmlns:svg="http://www.w3.org/2000/svg"
   xmlns="http://www.w3.org/2000/svg"
   xmlns:sodipodi="http://sodipodi.sourceforge.net/DTD/sodipodi-0.dtd"
   xmlns:inkscape="http://www.inkscape.org/namespaces/inkscape"
   width="48"
   height="48"
   id="svg2"
   version="1.1"
   inkscape:version="0.91 r"
   sodipodi:docname="pink-folder-pictures.svg"
   inkscape:export-filename="/media/Data/Main/Visuals/Icons/Numix/Desktop/repos/numix-wiki/Gjorgi/Numix-folders/48/New/folder-144.png"
   inkscape:export-xdpi="270"
   inkscape:export-ydpi="270">
  <defs
     id="defs4" />
  <sodipodi:namedview
     id="base"
     pagecolor="#ffffff"
     bordercolor="#666666"
     borderopacity="1.0"
     inkscape:pageopacity="0.0"
     inkscape:pageshadow="2"
     inkscape:zoom="9.848163"
     inkscape:cx="10.70252"
     inkscape:cy="10.290786"
     inkscape:document-units="px"
     inkscape:current-layer="layer1"
     showgrid="true"
     inkscape:window-width="1280"
     inkscape:window-height="998"
     inkscape:window-x="0"
     inkscape:window-y="0"
     inkscape:window-maximized="1"
     showguides="true"
     inkscape:guide-bbox="true">
    <inkscape:grid
       type="xygrid"
       id="grid2985"
       empspacing="5"
       visible="true"
       enabled="true"
       snapvisiblegridlinesonly="true" />
  </sodipodi:namedview>
  <metadata
     id="metadata7">
    <rdf:RDF>
      <cc:Work
         rdf:about="">
        <dc:format>image/svg+xml</dc:format>
        <dc:type
           rdf:resource="http://purl.org/dc/dcmitype/StillImage" />
        <dc:title />
      </cc:Work>
    </rdf:RDF>
  </metadata>
  <g
     inkscape:label="Layer 1"
     inkscape:groupmode="layer"
     id="layer1"
     transform="translate(0,-1004.3622)">
    <path
       style="fill:#ec407a;fill-opacity:1;stroke:none"
       d="m 6.9,1013.3622 34.2,0 c 0.9,0 1.9,1 1.9,2 l 0,4 c 0,1.108 -0.8474,2 -1.9,2 l -34.2,0 c -1.0526,0 -1.9,-0.892 -1.9,-2 l 0,-6 z"
       id="path3811"
       inkscape:connector-curvature="0" />
    <path
       style="fill:#ec407a;fill-opacity:1;stroke:none"
       d="m 5,1014.3622 c 0,-2 1e-7,-3 1.8181819,-3 l 6.3636361,0 c 1.818182,0 1.818182,1 1.818182,3 z"
       id="rect3760"
       inkscape:connector-curvature="0"
       sodipodi:nodetypes="csscc" />
    <path
       style="opacity:0.02999998;fill:#000000;fill-opacity:1;stroke:none"
       d="m 5,1017.3622 0,5 38,0 0,-5 z"
       id="path3807"
       inkscape:connector-curvature="0" />
    <rect
       style="fill:#f06292;fill-opacity:1;stroke:none"
       id="rect2990"
       width="42"
       height="25"
       x="3"
       y="1019.3622"
       rx="2"
       ry="2" />
    <path
       style="opacity:0.05;fill:#000000;fill-opacity:1;stroke:none"
       d="m 15,1013.3622 0,1 1.90625,0 24.1875,0 c 0.9,0 1.90625,1 1.90625,2 l 0,-1 c 0,-1 -1.00625,-2 -1.90625,-2 l -24.1875,0 z"
       id="path3813"
       inkscape:connector-curvature="0"
       sodipodi:nodetypes="cccscsscc" />
    <path
       style="opacity:0.05;fill:#000000;fill-opacity:1;stroke:none"
       d="m 6.8125,1011.3622 c -1.8181818,0 -1.8125,1 -1.8125,3 l 0.03125,0 c 0.053418,-1.3105 0.3094499,-2 1.78125,-2 l 6.375,0 c 1.4718,0 1.727832,0.6895 1.78125,2 l 0.03125,0 c 0,-2 0.0057,-3 -1.8125,-3 l -6.375,0 z"
       id="path3818"
       inkscape:connector-curvature="0" />
    <path
       style="opacity:0.1;fill:#ffffff;fill-opacity:1;stroke:none"
       d="m 5,1019.3622 c -1.108,0 -2,0.892 -2,2 l 0,1 c 0,-1.108 0.892,-2 2,-2 l 38,0 c 1.108,0 2,0.892 2,2 l 0,-1 c 0,-1.108 -0.892,-2 -2,-2 l -38,0 z"
       id="rect2991"
       inkscape:connector-curvature="0" />
    <path
       style="opacity:1.0;fill:#c64077;fill-opacity:1;fill-rule:evenodd"
       d="M 18 19 C 16.892 19 16 19.892 16 21 L 16 29 L 16 33 C 16 34.108 16.892 35 18 35 L 30 35 C 31.108 35 32 34.108 32 33 L 32 32 L 32 21 C 32 19.892 31.108 19 30 19 L 18 19 z M 18 21 L 30 21 L 30 29.625 L 26.5 25.5 L 24.28125 27.6875 L 21 24 L 18 27 L 18 21 z "
       transform="translate(0,1004.3622)"
       id="path12" />
  </g>
</svg>

<!-- Created with Inkscape (http://www.inkscape.org/) -->
<svg xmlns="http://www.w3.org/2000/svg" viewBox="0 0 48 48">
 <g transform="translate(0,-1004.3622)">
  <path d="m 6.9 1013.36 34.2 0 c 0.9 0 1.9 1 1.9 2 l 0 4 c 0 1.108 -0.847 2 -1.9 2 l -34.2 0 c -1.053 0 -1.9 -0.892 -1.9 -2 l 0 -6 z" style="fill:#ec407a;fill-opacity:1;stroke:none"/>
  <path d="m 5 1014.36 c 0 -2 0 -3 1.818 -3 l 6.364 0 c 1.818 0 1.818 1 1.818 3 z" style="fill:#ec407a;fill-opacity:1;stroke:none"/>
  <path d="m 5 1017.36 0 5 38 0 0 -5 z" style="fill:#000;opacity:0.03;fill-opacity:1;stroke:none"/>
  <rect width="42" height="25" x="3" y="1019.36" rx="2" style="fill:#f06292;fill-opacity:1;stroke:none"/>
  <path d="m 15 1013.36 0 1 1.906 0 24.19 0 c 0.9 0 1.906 1 1.906 2 l 0 -1 c 0 -1 -1.01 -2 -1.906 -2 l -24.19 0 z" style="fill:#000;opacity:0.05;fill-opacity:1;stroke:none"/>
  <path d="m 6.813 1011.36 c -1.818 0 -1.813 1 -1.813 3 l 0.031 0 c 0.053 -1.311 0.309 -2 1.781 -2 l 6.375 0 c 1.472 0 1.728 0.689 1.781 2 l 0.031 0 c 0 -2 0.006 -3 -1.813 -3 l -6.375 0 z" style="fill:#000;opacity:0.05;fill-opacity:1;stroke:none"/>
  <path d="m 5 1019.36 c -1.108 0 -2 0.892 -2 2 l 0 1 c 0 -1.108 0.892 -2 2 -2 l 38 0 c 1.108 0 2 0.892 2 2 l 0 -1 c 0 -1.108 -0.892 -2 -2 -2 l -38 0 z" style="fill:#fff;opacity:0.1;fill-opacity:1;stroke:none"/>
  <path d="m 18 19 c -1.108 0 -2 0.892 -2 2 l 0 8 l 0 4 c 0 1.108 0.892 2 2 2 l 12 0 c 1.108 0 2 -0.892 2 -2 l 0 -1 l 0 -11 c 0 -1.108 -0.892 -2 -2 -2 l -12 0 z m 0 2 l 12 0 l 0 8.625 l -3.5 -4.125 l -2.219 2.188 l -3.281 -3.688 l -3 3 l 0 -6 z" transform="translate(0,1004.3622)" style="fill:#c64077;opacity:1;fill-opacity:1;fill-rule:evenodd"/>
 </g>
</svg>
